svg/200/rounded/vertical_distribute-fill.svg

<svg xmlns="http://www.w3.org/2000/svg" width="48" height="48" viewBox="0 -960 960 960"><path d="M135.384-120q-6.538 0-10.961-4.485T120-135.6q0-6.631 4.423-10.9t10.961-4.269h689.232q6.538 0 10.961 4.485T840-135.169q0 6.631-4.423 10.9T824.616-120H135.384Zm200.001-324.615q-14.744 0-25.065-10.342Q300-465.299 300-480.072q0-14.774 10.32-25.043 10.321-10.27 25.065-10.27h289.23q14.744 0 25.065 10.342Q660-494.701 660-479.928q0 14.774-10.32 25.043-10.321 10.27-25.065 10.27h-289.23ZM135.384-809.231q-6.538 0-10.961-4.485T120-824.831q0-6.631 4.423-10.9T135.384-840h689.232q6.538 0 10.961 4.485T840-824.4q0 6.631-4.423 10.9t-10.961 4.269H135.384Z"/></svg>

<svg xmlns="http://www.w3.org/2000/svg" width="48" height="48" viewBox="0 -960 960 960"><path d="M135.38-120q-6.53 0-10.96-4.48-4.42-4.49-4.42-11.12 0-6.63 4.42-10.9 4.43-4.27 10.96-4.27h689.24q6.53 0 10.96 4.49 4.42 4.48 4.42 11.11 0 6.63-4.42 10.9-4.43 4.27-10.96 4.27H135.38Zm200-324.62q-14.74 0-25.06-10.34Q300-465.3 300-480.07q0-14.78 10.32-25.05 10.32-10.26 25.06-10.26h289.24q14.74 0 25.06 10.34Q660-494.7 660-479.93q0 14.78-10.32 25.05-10.32 10.26-25.06 10.26H335.38Zm-200-364.61q-6.53 0-10.96-4.49-4.42-4.48-4.42-11.11 0-6.63 4.42-10.9 4.43-4.27 10.96-4.27h689.24q6.53 0 10.96 4.48 4.42 4.49 4.42 11.12 0 6.63-4.42 10.9-4.43 4.27-10.96 4.27H135.38Z"/></svg>
